!! 00000] TT[WS
!!!OTL: Fang shao
!!!ARE: Asia, China, Shanxi Dingxiang
!! Ethnic Group: Han
!! WI, 285 (1)
!!!SCT: J0343
!!!YEM: Copyright 1995, estate of Helmut Schaffrath.
**kern
*ICvox
*Ivox
*M2/4
*k[b-e-]
*B-:
{8ccc
16ccc
16ccc
16bb-
16ccc
16ddd
16fff
=1
8ccc
16ccc
16ccc
8bb-
8gg
=2
8ccc
16ddd
16fff
16ddd
16ccc
16bb-
16gg
=3
16gg
16ff
16ee-
16cc
4ff}
=4
{8ccc
16ff
16gg
8.ccc
16bb-
=5
16gg
16bb-
16gg
16ff
8.ee-
16ff
=6
8gg
16gg
16bb-
16gg
16ff
16ee-
16dd
=7
8.cc
16b-
4cc}
==
!!!AGN: Xiaodiao. Xinminge, Xuanchuan
!! Neue Text. Politische Liede
!!!ONB: ESAC (Essen Associative Code) Database: CHINA
!!!AMT: simple duple
!!!AIN: vox
!!!EED: Helmut Schaffrath
!!!EEV: 1.0
*-
